!!!!SEGMENT: pl-cz--i-155--005-004_anonim--partita-es-finale.krn
!!!cenid: 18xx:2511
!!!COM: Anonim
!!!COM-rismid: pe30004985
!!!CDT:
!!!CNT:
!!!OPR: Partita Es
!!!OTL: Finale
!!!OMV: 004
!!!PDT:
!!!AGN: Secular; Partita
!!!SMS-siglum: PL-CZ
!!!SMS-shelfmark: I-155
!!!SMS-shelfwork: 005-004 M
!!!SMS-variant:
!!!SMS-altvar:
!!!NIFC-rismid: 1001012513
!!!URL-scan: http://repozytorium.nifc.pl/skany/pl-cz-nut--i-155
!!!ONB-nifc: UWAGA: Parthia 5 (005), części 1. Moderato, 2. Menuetto, 3. Andante, 4. Finale. Uwaga: 5 partii
!!!key:
**kern	**kern	**kern	**kern	**kern
*part5	*part4	*part3	*part2	*part1
*staff5	*staff4	*staff3	*staff2	*staff1
*Icor	*Icor	*Ifagot	*Iclars	*Iempty
*I"Corno Secondo.	*I"Corno Primo.	*I"Fagotto	*I"Clarinetto Secondo	*I"Clainetto Primo
*I'cor II	*I'cor I	*I'fag	*I'cl II	*I'cl I
*clefG2	*clefG2	*clefF4	*clefG2	*clefG2
*ITrd4c7	*ITrd4c7	*	*	*
*k[b-]	*k[b-]	*k[b-]	*k[b-]	*k[b-]
*F:	*F:	*F:	*F:	*F:
*M2/4	*M2/4	*M2/4	*M2/4	*M2/4
*>[A,A,B,B,C]	*>[A,A,B,B,C]	*>[A,A,B,B,C]	*>[A,A,B,B,C]	*>[A,A,B,B,C]
*>A	*>A	*>A	*>A	*>A
*all\right	*all\right	*all\right	*all\right	*all\right
!LO:TX:a:t=skan 0053	!LO:TX:a:t=skan 0045	!LO:TX:a:t=skan 0035	!LO:TX:a:t=skan 0023	!LO:TX:a:t=skan 0012
8r	8r	8r	8r	8cc\
=1	=1	=1	=1	=1
!LO:N:vis=00	!LO:N:vis=00	!LO:N:vis=00	!	!
0r	0r	0r	8f/L	8ff\
.	.	.	8c/	8r
.	.	.	8e/	8gg\
.	.	.	8c/J	8r
=2	=2	=2	=2	=2
.	.	.	8f/L	8aa\
.	.	.	8c/	8r
.	.	.	8e/	8bb-\
.	.	.	8c/J	8r
=3	=3	=3	=3	=3
.	.	.	8f/L	8aa\L
.	.	.	8A/	8ff\
.	.	.	8B-/	8ee\
.	.	.	8c/J	8ff\J
=4	=4	=4	=4	=4
.	.	.	8c/L	16gg\LL
.	.	.	.	16ff\
.	.	.	8e/	16ee\
.	.	.	.	16dd\JJ
.	.	.	8c/J	8cc\L
.	.	.	8r	8cc\J
!	!	!	!	!LO:LB:g=original
=5	=5	=5	=5	=5
!	!	!LO:TX:t=P:mixedbeam:problem	!	!
4f\	4a\	8FF/L	16F/LL	8ff\
.	.	.	16A/	.
.	.	8F\	16c/	4aa\
.	.	.	16A/JJ	.
*	*	*	*rep	*
8f\L	8a\L	8F\	16F/LL	.
.	.	.	16A/	.
8a\J	8cc\J	8F\J	16c/	8ccc\
.	.	.	16A/JJ	.
*	*	*	*Xrep	*
!	!	!	!LO:LB:g=original	!
=6	=6	=6	=6	=6
*	*2\right	*tremolo	*	*
2c/	2g\	8C/L	16E/LL	16bb-\LL
.	.	.	16G/	16aa\
.	.	8C/	16B-/	16gg\
.	.	.	16G/JJ	16ff\JJ
*	*	*	*rep	*
.	.	8C/	16E/LL	16ff\LL
.	.	.	16G/	16ee\
.	.	8C/J	16B-/	16dd\
.	.	.	16G/JJ	16cc\JJ
*	*	*Xtremolo	*Xrep	*
=7	=7	=7	=7	=7
!	!	!LO:TX:t=P:problem=mixedbeam	!	!
4f\	4a\	8F\L	16F/LL	8ff\L
.	.	.	16A/	.
.	.	8AA/	16c/	8aa\J
.	.	.	16A/JJ	.
4c/	4g\	8BB-/	16F/LL	16aa\LL
.	.	.	16B-/	16gg\
.	.	8C/J	16c/	16ff\
.	.	.	16B-/JJ	16ee\JJ
=8	=8	=8	=8	=8
4A/	4f\	4FF/	4A/	4ff\
!LO:TX:t=P:problem=brak wpisanej pauzy 8	!	!	!	!
8ryy	8r	8r	8r	8r
!LO:LB:g=original	!	!	!	!
=:!|!:	=:!|!:	=:!|!:	=:!|!:	=:!|!:
*>B	*>B	*>B	*>B	*>B
!	!	!	!	!LO:TX:t=P:problem=kreska taktowa nieprawidłowo się wyświetla
8r	8r	8r	8r	8aa\
=9	=9	=9	=9	=9
*	*	*2\right	*	*
2r	2r	2F\	16ff\LL	16aa\LL
.	.	.	16cc\	16gg\
.	.	.	16cc\	16ff\
!	!	!	!	!LO:LB:g=original
.	.	.	16cc\JJ	16gg\JJ
.	.	.	16ff\LL	16aa\LL
.	.	.	16gg\	16bbn\
.	.	.	16aa\	16ccc\
.	.	.	16ff\JJ	16aa\JJ
!	!	!LO:LB:g=original	!	!
=10	=10	=10	=10	=10
8c/L	8g\L	8E\L	16ee\LL	16gg\LL
.	.	.	16dd\	16ff\
8c/	8g\	8E\	16cc\	16ee\
.	.	.	16dd\JJ	16ff\JJ
!	!	!	!LO:LB:g=original	!
8c/J	8g\J	8E\J	8ee\L	8gg\L
8r	8r	8r	16dd\L	16bbn\L
.	.	.	16ee\JJ	16ccc\JJ
=11	=11	=11	=11	=11
2r	2r	2F\	16ff\LL	16aa\LL
.	.	.	16cc\	16gg\
.	.	.	16cc\	16ff\
.	.	.	16cc\JJ	16gg\JJ
.	.	.	16ff\LL	16aa\LL
.	.	.	16gg\	16bb-\
.	.	.	16aa\	16ccc\
.	.	.	16ff\JJ	16aa\JJ
=12	=12	=12	=12	=12
8c/L	8g\L	8E\L	16ee\LL	16gg\LL
.	.	.	16dd\	16ff\
8c/	8g\	8E\	16cc\	16ee\
.	.	.	16dd\JJ	16ff\JJ
8c/J	8g\J	8E\J	16ee\LL	16gg\LL
.	.	.	16ff\	16aa\
8r	8r	8r	16gg\	16bb-X\
.	.	.	16ee\JJ	16gg\JJ
!	!LO:LB:g=original	!	!	!LO:LB:g=original
=13	=13	=13	=13	=13
*2\right	*	*	*	*
2f\	2a\	2F\	16ff\LL	16aa\LL
.	.	.	16gg\	16bb-\
.	.	.	16aa\	16ccc\
.	.	.	16gg\JJ	16bbn\JJ
.	.	.	8aa\L	8ccc\L
.	.	.	16gg\L	16bb\L
.	.	.	16ff\JJ	16aa\JJ
=14	=14	=14	=14	=14
4c/	4g\	8E\L	8ee\L	8gg\L
.	.	8E\	16dd\L	16ff\L
.	.	.	16ee\JJ	16gg\JJ
4r	4r	8F\	8ff\L	8aa\L
.	.	8F\J	16ee\L	16gg\L
.	.	.	16dd\JJ	16ff\JJ
!	!	!	!LO:LB:g=original	!
=15	=15	=15	=15	=15
!	!	!LO:TX:t=P:problem=mixedbeam	!LO:TX:t=P:problem=mixedbeam	!
4c/	4g\	8G\L	8cc\L	4ee\
.	.	8G\	8g/	.
4c/	4g\	8GG/	8g/	4dd\
.	.	8GG/J	8g/J	.
=16	=16	=16	=16	=16
4c/	4g\	4C/	4e/	4cc\
4r	4r	8e\L	8ee\L	8gg\L
.	.	8e\J	8ee\J	8gg\J
=17	=17	=17	=17	=17
4r	4r	4c\	4cc\	4ee\
8c/L	8c/L	8C/L	8ee\L	8ccc\L
8c/J	8c/J	8C/J	8ee\J	8ccc\J
!	!	!LO:LB:g=original	!	!
=18	=18	=18	=18	=18
4c/	4c/	4C/	4ee\	4ccc\
4r	4r	8e\L	8ee\L	8gg\L
.	.	8e\J	8ee\J	8gg\J
!	!	!	!	!LO:LB:g=original
=19	=19	=19	=19	=19
4r	4r	4c\	4cc\	4ee\
8c/L	8c/L	8C/L	8ee\L	8ccc\L
8c/J	8c/J	8C/J	8ee\J	8ccc\J
!LO:LB:g=original	!	!	!	!
=20	=20	=20	=20	=20
4c/	4c/	4C/	4ee\	4ccc\
4r	4r	4r	4r	4r
=21	=21	=21	=21	=21
2r	2r	8C\L	8c/L	8cc\L
.	.	16D\L	16d/L	16dd\L
.	.	16E\JJ	16e/JJ	16ee\JJ
.	.	16F\LL	16f/LL	16ff\LL
.	.	16G\	16g/	16gg\
.	.	16A\	16a/	16aa\
!	!	!	!LO:SIC:v:s=16bn/JJ	!
.	.	16Bn\JJ	16b-/JJ	16bbn\JJ
=22	=22	=22	=22	=22
4C/	4c/	8c\L	8cc/L	8ccc\L
.	.	8G\	8g/	8gg\
4r	4r	8E\	8e/	8ee\
.	.	8C\J	8c/J	8cc\J
!	!	!	!LO:LB:g=original	!
=23	=23	=23	=23	=23
2r	2r	8F\	8f/	8ff\
.	.	8r	8r	8r
.	.	8G\	8g/	8gg\
.	.	8r	8r	8r
=24	=24	=24	=24	=24
8r	8r	4C/	4c/	4cc\
!	!LO:LB:g=original	!	!	!
16C/LL	16c/LL	.	.	.
16C/J	16c/J	.	.	.
8C/J	8c/J	8r	8r	8r
8r	8r	8F\	8a/	8ff\
!	!	!LO:LB:g=original	!	!LO:LB:g=original
=25	=25	=25	=25	=25
8r	8r	8c\	4g/	4ee\
16C/LL	16c/LL	8r	.	.
16C/J	16c/J	.	.	.
8C/J	8c/J	8G\	8r	8r
8r	8r	8r	8f/	8dd\
=26	=26	=26	=26	=26
!LO:TX:t=P:problem=takty 26-27 - repetycja	!	!	!	!
8ryy	8r	4C/	4e/	4cc\
16C/LLyy	16c/LL	.	.	.
16C/Jyy	16c/J	.	.	.
8C/Jyy	8c/J	8r	8r	8r
8ryy	8r	8F\	8a/	8ff\
=27	=27	=27	=27	=27
!	!LO:TX:t=P:problem=takt 27 - repetycja	!	!	!
8ryy	8ryy	4c\	4g/	4ee\
16C/LLyy	16c/LLyy	.	.	.
16C/Jyy	16c/Jyy	.	.	.
8C/Jyy	8c/Jyy	8r	8r	8r
8ryy	8ryy	8G\	8f/	8dd\
=28	=28	=28	=28	=28
4c/	4g\	4C/	4e/	4cc\
4c/	4g\	4c\	4ee\	4ccc\
=29	=29	=29	=29	=29
4c/	4g\	4C/	4ee\	4ccc\
4r	4r	4r	4r	8r
.	.	.	.	8cc\
=30	=30	=30	=30	=30
!LO:N:vis=00	!LO:N:vis=00	!LO:N:vis=00	!	!
0r	0r	0r	8f/L	8ff\
.	.	.	8c/	8r
.	.	.	8e/	8gg\
.	.	.	8c/J	8r
!	!	!	!LO:LB:g=original	!
=31	=31	=31	=31	=31
.	.	.	8f/L	8aa\
.	.	.	8c/	8r
!	!	!	!	!LO:LB:g=original
.	.	.	8e/	8bb-\
.	.	.	8c/J	8r
=32	=32	=32	=32	=32
.	.	.	8f/L	8aa\L
.	.	.	8A/J	8ff\
.	.	.	8B-/L	8ee\
.	.	.	8c/J	8ff\J
=33	=33	=33	=33	=33
.	.	.	8c/L	16gg\LL
.	.	.	.	16ff\
.	.	.	8e/	16ee\
.	.	.	.	16dd\JJ
.	.	.	8c/J	8cc\L
.	.	.	8r	8cc\J
=34	=34	=34	=34	=34
*	*	*tremolo	*	*
4f\	4a\	8F\L	16F/LL	8ff\
.	.	.	16A/	.
.	.	8F\	16c/	4aa\
.	.	.	16A/JJ	.
*	*	*	*rep	*
8f\L	8a\L	8F\	16F/LL	.
.	.	.	16A/	.
8a\J	8cc\J	8F\J	16c/	8ccc\
.	.	.	16A/JJ	.
*	*	*	*Xrep	*
=35	=35	=35	=35	=35
2B-/	2g\	8C/L	16E/LL	16bb-\LL
.	.	.	16G/	16aa\
.	.	8C/	16B-/	16gg\
.	.	.	16G/JJ	16ff\JJ
*	*	*	*rep	*
.	.	8C/	16E/LL	16ff\LL
.	.	.	16G/	16ee\
.	.	8C/J	16B-/	16dd\
.	.	.	16G/JJ	16cc\JJ
*	*	*Xtremolo	*Xrep	*
!	!	!	!	!LO:LB:g=original
=36	=36	=36	=36	=36
!	!	!LO:TX:t=P:problem=mixedbeam	!	!
4f/	4a\	8FF/L	16F/LL	8ff\L
.	.	.	16A/	.
.	.	8c\	16c/	8aa\J
.	.	.	16A/JJ	.
!	!	!	!LO:LB:g=original	!
4c/	4g\	8B-\	16G/LL	16aa\LL
.	.	.	16B-/	16gg\
.	.	8G\J	16c/	16ff\
.	.	.	16B-/JJ	16ee\JJ
=	=	=	=	=
4A/	4f\	4F\	4A/	4ff\
8ryy	8ryy	8r	8r	8r
!LO:LB:g=original	!LO:LB:g=original	!LO:LB:g=original	!LO:LB:g=original	!LO:LB:g=original
=:|!	=:|!	=:|!	=:|!	=:|!
*>C	*>C	*>C	*>C	*>C
*k[b-]	*k[b-]	*k[b-]	*k[b-]	*k[b-]
*M2/4	*M2/4	*M2/4	*M2/4	*M2/4
!LO:TX:a:i:t=Coda	!LO:TX:a:i:t=Coda	!LO:TX:a:i:t=Coda	!LO:TX:a:i:t=Coda	!LO:TX:a:i:t=Coda
8r	8r	8F\	8f/	8f/
=38	=38	=38	=38	=38
4F/	4f\	8F\L	8f/L	8f/L
.	.	16G\L	16g/L	16g/L
.	.	16A\JJ	16a/JJ	16a/JJ
4r	4r	16B-\LL	16b-\LL	16b-\LL
.	.	16c\	16cc\	16cc\
.	.	16d\	16dd\	16dd\
.	.	16e\JJ	16ee\JJ	16ee\JJ
=39	=39	=39	=39	=39
!LO:N:vis=0	!LO:N:vis=0	!	!	!
1r	1r	8f\L	8ff\L	8ff\L
.	.	8c\	8cc\	8cc\
.	.	8A\	8a\	8a\
.	.	8F\J	8f\J	8f\J
=40	=40	=40	=40	=40
!	!	!LO:SIC:v:s=8B-\	!	!
.	.	8A\	8B-/	8b-\
.	.	8r	8r	8r
!	!	!LO:SIC:v:s=8c\	!	!
.	.	8B-\	8c/	8cc\
.	.	8r	8r	8r
=41	=41	=41	=41	=41
8r	8r	8F\	8F/	4f/
16F/LL	16f\LL	8r	8r	.
16F/J	16f\J	.	.	.
8F/J	8f\J	8B-\	8r	8r
8r	8r	8r	8dd\	8bb-\
!	!	!LO:LB:g=original	!	!LO:LB:g=original
=42	=42	=42	=42	=42
8r	8r	4c\	4cc\	4aa\
16F/LL	16f\LL	.	.	.
16F/J	16f\J	.	.	.
8F/J	8f\J	8r	8r	8r
8r	8r	8C/	8b-\	8gg\
!	!	!	!LO:LB:g=original	!
=43	=43	=43	=43	=43
!LO:TX:t=P:problem=takty 43-44 - repetycja	!	!	!	!
8ryy	8r	4F\	4a\	4ff\
16F/LLyy	16f\LL	.	.	.
16F/Jyy	16f\J	.	.	.
8F/Jyy	8f\J	8r	8r	8r
8ryy	8r	8B-\	8dd\	8bb-\
=44	=44	=44	=44	=44
8ryy	8r	4c\	4cc\	4aa\
!	!LO:LB:g=original	!	!	!
16F/LLyy	16f\LL	.	.	.
16F/Jyy	16f\J	.	.	.
8F/Jyy	8f\J	8r	8r	8r
8ryy	8r	8C/	8b-\	8gg\
=45	=45	=45	=45	=45
4A/	4f\	4F\	4a/	4ff\
4A/	4f\	4F\	4a/	4ff\
=46	=46	=46	=46	=46
4A/	4f\	4F\	4a/	4ff\
!LO:N:vis=4	!	!	!	!
8r	8r	8r	8r	8r
==	==	==	==	==
*-	*-	*-	*-	*-
!!!system-decoration: [(s1,s2,s3)][(s4,s5)]
!!!AIN: 1 clars 2 cor 1 empty 1 fagot
!!!ENC: Anastazja Marusiak
!!!END: 2021-06-16
!!!EED: Andrzej Borzym
!!!EST: 2021-06-21
